src/img/brand.zendesk.svg

<svg xmlns="http://www.w3.org/2000/svg" width="110" height="22" viewBox="0 0 110 22">
  <g fill="#FFF">
    <path d="M76.33,12.4 C76.2758706,11.4597185 75.8503083,10.5794855 75.1469909,9.95306413 C74.4436734,9.32664271 73.5202532,9.00538194 72.58,9.06 C70.5763693,8.94992149 68.8291232,10.4088719 68.58,12.4 L76.33,12.4 Z M72.95,18.14 C74.4029635,18.1698025 75.8086673,17.6233397 76.86,16.62 L78.8,18.71 C77.2810675,20.2645717 75.1712498,21.0975859 73,21 C68.27,21 65.21,17.86 65.21,13.61 C65.1689606,11.6429829 65.9302084,9.74396957 67.3185698,8.34994909 C68.7069312,6.95592861 70.6028322,6.18696234 72.57,6.22 C77.27,6.22 79.93,9.8 79.7,14.76 L68.57,14.76 C68.96,16.82 70.41,18.13 72.94,18.13 L72.95,18.14 Z"/>
    <polygon points=".2 6.57 .2 9.3 8.55 9.3 0 17.98 0 20.77 12.63 20.77 12.63 18.04 3.96 18.04 12.51 9.36 12.51 6.57"/>
    <path d="M25.61 12.4C25.5558706 11.4597185 25.1303083 10.5794855 24.4269909 9.95306413 23.7236734 9.32664271 22.8002532 9.00538194 21.86 9.06 19.8563693 8.94992149 18.1091232 10.4088719 17.86 12.4L25.61 12.4zM22.23 18.14C23.6829635 18.1698025 25.0886673 17.6233397 26.14 16.62L28.08 18.71C26.5563521 20.2699032 24.4380988 21.1033739 22.26 21 17.53 21 14.47 17.86 14.47 13.61 14.4289606 11.6429829 15.1902084 9.74396957 16.5785698 8.34994909 17.9669312 6.95592861 19.8628322 6.18696234 21.83 6.22 26.53 6.22 29.19 9.8 28.96 14.76L17.85 14.76C18.24 16.82 19.69 18.13 22.22 18.13L22.23 18.14zM59.45 13.6C59.45 11.1147186 57.4352814 9.1 54.95 9.1 52.4647186 9.1 50.45 11.1147186 50.45 13.6 50.3379846 15.2792981 51.1703422 16.8812531 52.6088481 17.754918 54.0473541 18.6285828 55.8526459 18.6285828 57.2911519 17.754918 58.7296578 16.8812531 59.5620154 15.2792981 59.45 13.6M47.45 13.6C47.3706613 11.6629247 48.0880039 9.77785331 49.4350521 8.38357337 50.7821003 6.98929342 52.6413413 6.20743825 54.58 6.22 56.3939045 6.19640113 58.1254022 6.97612419 59.31 8.35L59.31 0 62.31 0 62.31 20.72 59.31 20.72 59.31 18.72C58.1475191 20.1744166 56.3818455 21.0148625 54.52 21 52.5918603 20.9875154 50.750495 20.1968065 49.4136803 18.8072723 48.0768656 17.4177382 47.3579342 15.547181 47.42 13.62M81.64 17.71L84.38 16.29C85.1104331 17.5981742 86.5019736 18.3977334 88 18.37 89.71 18.37 90.59 17.49 90.59 16.5 90.59 15.51 89 15.1 87.17 14.73 84.75 14.22 82.24 13.42 82.24 10.5 82.24 8.26 84.38 6.18 87.74 6.21 90.0065555 6.07358697 92.179582 7.13165747 93.47 9L90.93 10.39C90.2183881 9.33465635 89.0119417 8.72197823 87.74 8.77 86.12 8.77 85.29 9.57 85.29 10.47 85.29 11.37 86.6 11.78 88.65 12.23 90.99 12.74 93.65 13.51 93.65 16.46 93.65 18.46 91.94 21.06 87.89 21.03 85.3528103 21.212949 82.9324631 19.9368364 81.65 17.74"/>
    <polygon points="96.43 0 96.43 20.72 99.45 20.72 99.45 17.03 101.85 14.42 106.27 20.72 109.69 20.72 109.69 20.72 103.98 12.6 109.54 6.53 105.87 6.53 99.45 13.57 99.45 0"/>
    <path d="M38.29,6.24 C34.7,6.24 31.69,8.57 31.69,12.43 L31.69,20.72 L34.77,20.72 L34.77,12.81 C34.6625508,11.8121065 35.005479,10.818249 35.7054412,10.0989508 C36.4054033,9.3796527 37.3895496,9.00977621 38.39,9.09 C40.67,9.09 41.81,10.48 41.81,12.81 L41.81,20.72 L44.89,20.72 L44.89,12.43 C44.89,8.57 41.89,6.24 38.29,6.24"/>
  </g>
</svg>

<svg xmlns="http://www.w3.org/2000/svg" xmlns:xlink="http://www.w3.org/1999/xlink" viewBox="0 0 109.69 21.01"><defs><style>.cls-1{fill:none;}.cls-2{clip-path:url(#clip-path);}.cls-3{fill:#04363d;}</style><clipPath id="clip-path"><rect class="cls-1" width="109.69" height="21.01"/></clipPath></defs><title>zendesk-workmark</title><g id="Layer_2" data-name="Layer 2"><g id="Layer_1-2" data-name="Layer 1"><g class="cls-2"><path class="cls-3" d="M76.33,12.4a3.55,3.55,0,0,0-3.75-3.34,3.82,3.82,0,0,0-4,3.34Zm-3.38,5.74a5.5,5.5,0,0,0,3.91-1.52l1.94,2.09A7.63,7.63,0,0,1,73,21c-4.73,0-7.79-3.14-7.79-7.39a7.24,7.24,0,0,1,7.36-7.39c4.7,0,7.36,3.58,7.13,8.54H68.57c.39,2.06,1.84,3.37,4.37,3.37"/></g><polygon class="cls-3" points="0.2 6.57 0.2 9.3 8.55 9.3 0 17.98 0 20.77 12.63 20.77 12.63 18.04 3.96 18.04 12.51 9.36 12.51 6.57 0.2 6.57"/><g class="cls-2"><path class="cls-3" d="M25.61,12.4a3.55,3.55,0,0,0-3.75-3.34,3.82,3.82,0,0,0-4,3.34Zm-3.38,5.74a5.5,5.5,0,0,0,3.91-1.52l1.94,2.09A7.63,7.63,0,0,1,22.26,21c-4.73,0-7.79-3.14-7.79-7.39a7.24,7.24,0,0,1,7.36-7.39c4.7,0,7.36,3.58,7.13,8.54H17.85c.39,2.06,1.84,3.37,4.37,3.37"/><path class="cls-3" d="M59.45,13.6a4.5,4.5,0,1,0-9,0,4.51,4.51,0,1,0,9,0m-12,0a7.09,7.09,0,0,1,7.13-7.38,6.14,6.14,0,0,1,4.73,2.13V0h3V20.72h-3v-2A6.07,6.07,0,0,1,54.52,21a7.15,7.15,0,0,1-7.1-7.38"/><path class="cls-3" d="M81.64,17.71l2.74-1.42A4.06,4.06,0,0,0,88,18.37c1.71,0,2.59-.88,2.59-1.87S89,15.1,87.17,14.73c-2.42-.51-4.93-1.31-4.93-4.23,0-2.24,2.14-4.32,5.5-4.29A6.49,6.49,0,0,1,93.47,9l-2.54,1.39a3.68,3.68,0,0,0-3.19-1.62c-1.62,0-2.45.8-2.45,1.7s1.31,1.31,3.36,1.76c2.34.51,5,1.28,5,4.23,0,2-1.71,4.6-5.76,4.57a6.67,6.67,0,0,1-6.24-3.29"/></g><polygon class="cls-3" points="96.43 0 96.43 20.72 99.45 20.72 99.45 17.03 101.85 14.42 106.27 20.72 109.69 20.72 109.69 20.72 103.98 12.6 109.54 6.53 105.87 6.53 99.45 13.57 99.45 0 96.43 0"/><g class="cls-2"><path class="cls-3" d="M38.29,6.24c-3.59,0-6.6,2.33-6.6,6.19v8.29h3.08V12.81a3.37,3.37,0,0,1,3.62-3.72c2.28,0,3.42,1.39,3.42,3.72v7.91h3.08V12.43c0-3.86-3-6.19-6.6-6.19"/></g></g></g></svg>
